X:4288
T:Doon Reel, The
R:reel
D:Solas: Solas
Z:Devin McCabe
M:C|
L:1/8
K:D
!DFAF BFAF|DFAF EGFE|D2FA BAFA|1 (3Bcd ec dBAF:|2 (3Bcd ec dBAB||
!d2fd Adfd|d2fd BABc|d2fd Adfa|afeg fddc|
!d2fd Adfd|d2fd ~e3f|gfec dcBA|(3Bcd ec dBAF||
